Sources/FrostedUI/Resources/Icons.xcassets/lightbulb20.imageset/lightbulb-20.svg

<svg width="20" height="20" viewBox="0 0 20 20" fill="none" xmlns="http://www.w3.org/2000/svg" data-fui-icon="true">
  <path
    d="M10 0C14.1421 0 17.5 3.35786 17.5 7.5C17.5 9.93272 16.3408 12.0948 14.5479 13.4639C14.2163 13.717 14.03 14.039 14.0078 14.3467L13.9102 15.708C13.8438 16.6299 13.2752 17.4004 12.4854 17.7676C12.3518 19.0224 11.2903 20 10 20C8.70966 20 7.64717 19.0225 7.51367 17.7676C6.72426 17.4002 6.15614 16.6295 6.08984 15.708L5.99219 14.3467C5.97002 14.039 5.78368 13.717 5.45215 13.4639C3.65925 12.0948 2.5 9.93272 2.5 7.5C2.5 3.35786 5.85786 0 10 0ZM9.13477 18C9.30773 18.2987 9.63003 18.5 10 18.5C10.37 18.5 10.6923 18.2987 10.8652 18H9.13477ZM10 1.5C6.68629 1.5 4 4.18629 4 7.5C4 9.44548 4.92487 11.1749 6.3623 12.2725C6.94443 12.7169 7.42793 13.4004 7.48828 14.2393L7.58691 15.6006C7.62337 16.1073 8.04468 16.5 8.55273 16.5H8.62207L7.25879 7.86719C7.21954 7.6186 7.30753 7.36621 7.49316 7.19629C7.67875 7.02642 7.93756 6.96153 8.18164 7.02246L8.91309 7.20508L9.66504 6.8291C9.87597 6.72379 10.124 6.7238 10.335 6.8291L11.0869 7.20508L11.8184 7.02246C12.0624 6.96152 12.3212 7.02642 12.5068 7.19629C12.6925 7.36621 12.7805 7.6186 12.7412 7.86719L11.3779 16.5H11.4473C11.9553 16.5 12.3776 16.1073 12.4141 15.6006L12.5117 14.2393C12.5721 13.4004 13.0556 12.7169 13.6377 12.2725C15.0751 11.1749 16 9.44548 16 7.5C16 4.18629 13.3137 1.5 10 1.5ZM9.33496 8.6709C9.2049 8.73583 9.05908 8.76116 8.91602 8.74512L10 15.6074L11.084 8.74512C10.9409 8.76116 10.7951 8.73584 10.665 8.6709L10 8.33887L9.33496 8.6709Z"
    fill="currentColor"
  />
</svg>

<svg xmlns="http://www.w3.org/2000/svg" width="20" height="20" fill="none" data-fui-icon="true" viewBox="0 0 20 20"><path fill="currentColor" d="M10 0a7.5 7.5 0 0 1 4.548 13.464c-.332.253-.518.575-.54.883l-.098 1.361a2.47 2.47 0 0 1-1.425 2.06 2.5 2.5 0 0 1-4.971 0 2.47 2.47 0 0 1-1.424-2.06l-.098-1.361c-.022-.308-.208-.63-.54-.883A7.5 7.5 0 0 1 10 0m-.865 18a1 1 0 0 0 1.73 0zM10 1.5a6 6 0 0 0-3.638 10.773c.582.444 1.066 1.127 1.126 1.966l.099 1.362c.036.506.458.899.966.899h.07L7.258 7.867a.75.75 0 0 1 .923-.845l.731.183.752-.376a.75.75 0 0 1 .67 0l.752.376.731-.183a.75.75 0 0 1 .923.845L11.378 16.5h.07a.97.97 0 0 0 .966-.9l.098-1.36c.06-.84.544-1.523 1.126-1.967A6 6 0 0 0 10 1.5m-.665 7.17a.75.75 0 0 1-.419.075L10 15.607l1.084-6.862a.75.75 0 0 1-.419-.074L10 8.339z"/></svg>
